X:1
T:Title
%%score { ( 1 3 ) | ( 2 4 ) }
L:1/8
M:6/8
K:Ab
V:1 treble nm="Grand Piano"
V:3 treble 
V:2 bass 
V:4 bass 
V:1
 z3 z2[Q:1/4=78] [CE] | [Ec]>[Fd][Ec] [CA][CE][C=E] | [DF][FA][=EB] [_Ec]2 c | %3
 cB[=EB] [FA][CF][=DB] | B3- B2 E | [Ec]>[Fd][Ec] [CA][CE][C=E] | [DF][FB][Fe] [Fd]2 [A=d] | %7
 [Ae][Ac][Fd] [GB]<BA |[M:5/8] A-A- A3 |[M:1/8] A |[M:3/4] d>e d A2 B | c6 | %12
 e>e [Ae][A=d] [Ad][Ad] | [Gd][Gd] [Gd][Ac] [Ac][A=d] | [Ae]c [Fd] [DB]2 [CEA] | %15
[M:5/8] [CEA]-[CEA]- [CEA]3 |] %16
V:2
 z3 z2 [A,,A,] | [A,,A,]>[A,,A,][A,,A,] [A,,A,][A,,A,][A,,A,] | %2
 [A,,A,][A,,A,][A,,A,] [A,,A,]2 [A,E] | [G,C=E][G,CE][C,C] [F,C][F,A,][B,,A,] | %4
 [E,G,E]3- [E,G,E]2 [E,G,] | [A,,A,]>[A,,A,][A,,A,] [A,,A,][A,,A,][A,,A,] | %6
 [D,A,][D,A,][D,A,] [D,A,]2 [F,B,] | [E,C][E,A,][E,B,] [E,D]<[E,DE][K:treble][A,CE] | %8
[M:5/8] [A,CE]-[A,CE]- [A,CE]3 |[M:1/8] [A,C_G] | %10
[M:3/4] [A,DF]>[A,DF] [A,DF] [A,DF]2[K:bass] [A,D=E] | [A,E]2 z2 z2[K:treble] | %12
 [A,CA]>[A,CA][K:bass] [E,C][F,B,] [F,B,][B,,B,] | [E,B,][E,B,] [E,E][A,E] [A,E][F,B,] | %14
 .C2 z .E,3 |[M:5/8] A,,-A,,- A,,3 |] %16
V:3
 x6 | x6 | x6 | x6 | x6 | x6 | x6 | x6 |[M:5/8] x5 |[M:1/8] x |[M:3/4] x6 | z2 E E2 c | x6 | x6 | %14
 z2 z G z2 |[M:5/8] x5 |] %16
V:4
 x6 | x6 | x6 | x6 | x6 | x6 | x6 | x5[K:treble] x |[M:5/8] x5 |[M:1/8] x |[M:3/4] x5[K:bass] x | %11
 C2- [A,,C-] [A,,C]2[K:treble] [A,E] | x2[K:bass] x4 | x6 | E,-[E,A,E] .[B,,A,]2 EA,, | %15
[M:5/8] x5 |] %16

